X: 10324
T: Domhnall Na Graine
R: jig
M: 6/8
K: Gmajor
|:fed cAd|cAA A2e|fed cAd|cAF G2g|fed cAd|
[1 cAA AFD|G3 BAG|AFD D3:|2 cAA A2f|g3 fed|cAF GAB||
|:cAA A2G|FDD D2B|cAA A2G|Add ded|cAA A2G|
[1 FDD DEF|G3 cAG|AFD D3:|2 FDD D2f|g3 fed|cAF GAG||
|:F2D cAG|FDD D2E|F2D cAG|Add (4dcAG|F2D cAG|
[1 FDD DEF|G3 cAG|AFD D3:|2 FDD D2f|gag fed|cAF Gag||

